public/assets/design-kit/logo/full-logo-green-light.svg

<svg width="132" height="32" viewBox="0 0 800 200" fill="none" xmlns="http://www.w3.org/2000/svg">
  <path d="M168.303 200H279.825C283.368 200 286.847 199.076 289.915 197.321C292.983 195.565 295.53 193.04 297.3 190C299.07 186.959 300.002 183.51 300 179.999C299.998 176.488 299.064 173.04 297.291 170.001L222.396 41.4295C220.625 38.3895 218.079 35.865 215.012 34.1097C211.945 32.3545 208.466 31.4304 204.924 31.4304C201.383 31.4304 197.904 32.3545 194.837 34.1097C191.77 35.865 189.223 38.3895 187.453 41.4295L168.303 74.3264L130.86 9.99764C129.089 6.95784 126.541 4.43369 123.473 2.67878C120.405 0.923866 116.926 0 113.384 0C109.842 0 106.362 0.923866 103.294 2.67878C100.226 4.43369 97.6787 6.95784 95.907 9.99764L2.70883 170.001C0.935809 173.04 0.00154312 176.488 1.90993e-06 179.999C-0.0015393 183.51 0.929698 186.959 2.70005 190C4.4704 193.04 7.01744 195.565 10.085 197.321C13.1525 199.076 16.6324 200 20.1747 200H90.1793C117.916 200 138.371 187.925 152.445 164.367L186.616 105.715L204.919 74.3264L259.849 168.611H186.616L168.303 200ZM89.0381 168.579L40.1837 168.568L113.416 42.8622L149.957 105.715L125.491 147.725C116.144 163.01 105.526 168.579 89.0381 168.579Z" fill="#00DC82"/>
  <path d="M377 200C379.209 200 381 198.209 381 196V103C381 103 386.244 111.286 396 128L434.707 194.961C436.496 198.08 439.791 200 443.356 200H470V50H443C440.791 50 439 51.7909 439 54V148L422 118L385.412 55.0206C383.62 51.9118 380.331 50 376.773 50H350V200H377Z" fill="white"/>
  <path d="M676.203 143.857L710.551 92H684.821C681.47 92 678.341 93.6978 676.488 96.522L660.757 120.5L645.026 96.522C643.173 93.6978 640.044 92 636.693 92H611.166L645.514 143.643L608.524 200H633.49C636.815 200 639.921 198.329 641.78 195.542L660.96 166.786L679.941 195.506C681.796 198.314 684.915 200 688.254 200H712.99L676.203 143.857Z" fill="white"/>
  <path d="M724.598 92H744.312V60.0714H772.563V92H800V116.857H772.563V159.5C772.563 170 777.847 174.929 786.993 174.929H800V200H783.131C759.555 200 744.312 185.857 744.312 160.786V116.857H724.598V92Z" fill="white"/>
  <path d="M590 92H575C571.511 92 568.782 92.1454 566.5 94.5234C564.218 96.7692 564 98.1539 564 101.589V154.075C564 162.133 563.624 167.037 560 171C556.376 174.831 551.381 176 544 176C536.753 176 531.624 174.831 528 171C524.376 167.037 524 162.133 524 154.075V101.589C524 98.1539 523.782 96.7692 521.5 94.5234C519.218 92.1454 516.489 92 513 92H498V154.422C498 168.426 501.892 179.523 509.676 187.714C517.594 195.905 529.103 200 544 200C558.897 200 570.204 195.905 578.123 187.714C586.041 179.523 590 168.426 590 154.422V92Z" fill="white"/>
</svg>

<svg xmlns="http://www.w3.org/2000/svg" width="132" height="32" fill="none" viewBox="0 0 800 200"><path fill="#00DC82" d="M168.303 200h111.522c3.543 0 7.022-.924 10.09-2.679A20.086 20.086 0 0 0 297.3 190a19.855 19.855 0 0 0 2.7-10.001 19.858 19.858 0 0 0-2.709-9.998L222.396 41.429a20.09 20.09 0 0 0-7.384-7.32 20.313 20.313 0 0 0-10.088-2.679c-3.541 0-7.02.925-10.087 2.68a20.082 20.082 0 0 0-7.384 7.32l-19.15 32.896L130.86 9.998a20.086 20.086 0 0 0-7.387-7.32A20.322 20.322 0 0 0 113.384 0c-3.542 0-7.022.924-10.09 2.679a20.091 20.091 0 0 0-7.387 7.319L2.709 170A19.853 19.853 0 0 0 0 179.999c-.002 3.511.93 6.96 2.7 10.001a20.091 20.091 0 0 0 7.385 7.321A20.322 20.322 0 0 0 20.175 200h70.004c27.737 0 48.192-12.075 62.266-35.633l34.171-58.652 18.303-31.389 54.93 94.285h-73.233L168.303 200Zm-79.265-31.421-48.854-.011 73.232-125.706 36.541 62.853-24.466 42.01c-9.347 15.285-19.965 20.854-36.453 20.854Z"/><path fill="#fff" d="M377 200a4 4 0 0 0 4-4v-93s5.244 8.286 15 25l38.707 66.961c1.789 3.119 5.084 5.039 8.649 5.039H470V50h-27a4 4 0 0 0-4 4v94l-17-30-36.588-62.98c-1.792-3.108-5.081-5.02-8.639-5.02H350v150h27ZM676.203 143.857 710.551 92h-25.73a9.972 9.972 0 0 0-8.333 4.522L660.757 120.5l-15.731-23.978A9.972 9.972 0 0 0 636.693 92h-25.527l34.348 51.643L608.524 200h24.966a9.969 9.969 0 0 0 8.29-4.458l19.18-28.756 18.981 28.72a9.968 9.968 0 0 0 8.313 4.494h24.736l-36.787-56.143ZM724.598 92h19.714V60.071h28.251V92H800v24.857h-27.437V159.5c0 10.5 5.284 15.429 14.43 15.429H800V200h-16.869c-23.576 0-38.819-14.143-38.819-39.214v-43.929h-19.714V92ZM590 92h-15c-3.489 0-6.218.145-8.5 2.523-2.282 2.246-2.5 3.63-2.5 7.066v52.486c0 8.058-.376 12.962-4 16.925-3.624 3.831-8.619 5-16 5-7.247 0-12.376-1.169-16-5-3.624-3.963-4-8.867-4-16.925v-52.486c0-3.435-.218-4.82-2.5-7.066C519.218 92.145 516.489 92 513 92h-15v62.422c0 14.004 3.892 25.101 11.676 33.292C517.594 195.905 529.103 200 544 200c14.897 0 26.204-4.095 34.123-12.286 7.918-8.191 11.877-19.288 11.877-33.292V92Z"/></svg>
